!!!OTL: FALSCHES HALLE GUTE NACHT
!!!ARE: Europa, Mitteleuropa, Deutschland, Halle
!!!SCT: Z0272
!!!YEM: Copyright 1995, estate of Helmut Schaffrath.
**kern
*ICvox
*Ivox
*M4/4
*k[b-e-a-d-]
*f:
=1
{2cc
2b-
=2
2a-
2g}
=3
{4cc
4dd-
4cc
4b-
=4
4a-
4b-
2cc}
=5
{4f
4g
4a-
4b-
=6
2cc
2e
=7
1f}
=8
{4cc
4b-
4cc
4ee-
=9
4dd-
4cc
4b-
4a-}
=10
{4b-
4a-
4b-
4dd-
=11
4cc
4b-
4a-
4g}
=12
{2cc
2b-
=13
2a-
2g}
=14
{4cc
4dd-
4cc
4b-
=15
4a-
4b-
2cc}
=16
{4f
4g
4a-
4b-
=17
2cc
2e
=18
1f}
=19
{4f
4g
4a-
4b-
=20
2cc
2e
=21
1f}
==
!!!AGN: Lyrisches Lied, Romanze, Studenten - Lied
!!!ONB: ESAC (Essen Associative Code) Database: ZUCCAL
!!!AMT: simple quadruple
!!!AIN: vox
!!!EED: Helmut Schaffrath
!!!EEV: 1.0
*-
